src/24/panel/skype-status-away-notification.svg

<svg xmlns="http://www.w3.org/2000/svg" width="24" height="24" version="1"><path d="M8 4a4 4 0 0 0-4 4 4 4 0 0 0 1.115 2.77A7 7 0 0 0 5 12a7 7 0 0 0 7 7 7 7 0 0 0 1.238-.113A4 4 0 0 0 16 20a4 4 0 0 0 4-4 4 4 0 0 0-1.115-2.77A7 7 0 0 0 19 12a7 7 0 0 0-7-7 7 7 0 0 0-1.238.113A4 4 0 0 0 8 4zm4 5.09v2h4v2h-4v2l-5-3z" fill="currentColor" color="#bebebe"/><circle cx="20" cy="5" r="2" fill="currentColor" color="#5294e2"/></svg>

<svg xmlns="http://www.w3.org/2000/svg" width="24" height="24" version="1">
 <defs>
  <style id="current-color-scheme" type="text/css">
   .ColorScheme-Text { color:#bebebe; } .ColorScheme-Highlight { color:#5294e2; }
  </style>
 </defs>
 <path style="fill:currentColor" class="ColorScheme-Text" d="M 8,4 A 4,4 0 0 0 4,8 4,4 0 0 0 5.1152,10.7695 7,7 0 0 0 5,12 7,7 0 0 0 12,19 7,7 0 0 0 13.238,18.887 4,4 0 0 0 16,20 4,4 0 0 0 20,16 4,4 0 0 0 18.885,13.23 7,7 0 0 0 19,12 7,7 0 0 0 12,5 7,7 0 0 0 10.7617,5.1133 4,4 0 0 0 8,4 Z m 4,5.0898 V 11.09 h 4 v 2 h -4 v 2 l -5,-3 z"/>
 <circle style="fill:currentColor" class="ColorScheme-Highlight" cx="20" cy="5" r="2"/>
</svg>
